X:74
T:New Midsummers Day. JBs.074
S:Jas.Blackshaw MS, 1837, N.Shropshire
A:North Shropshire
Z:T. Weatherall 2006
M:6/8
L:1/8
Q:3/8=120
R:Jig
K:C
G|cde dcB|c2cc2c|edc gfe|d2dd2G|!
cde dcB|c2de2a|gfe dcB|c2câ€*â€c2:|!
|:z|e2e dcd|e2ee2d|c2c gfe|d2dd2z|!
g2ge2d|cde dfa|gfe dcB|c2cc2:|

